X:1
T:Sonata in G major for Flute and Piano
T:Sonata G-Dur, TWV 41:G9
T:for Flute and Piano in Essercizii musici (No.15 = Solo 8) Transcribed for Recorder, Fagotto & Harpsichord in B-Dur from IMSLP#324747 PDF File
T:Georg Philipp Telemann (1681-1767)
T:Public Domain
T:Public Domain
T:Public Domain
T:Public Domain
T:Public Domain
T:Public Domain
T:Public Domain
C:Georg Philipp Telemann (1681 — 1767)
Z:Public Domain
%%score [ 1 2 ] { ( 3 4 6 ) | 5 }
L:1/8
Q:1/4=36
M:4/4
K:Bb
V:1 treble nm="Alto Rec." snm="A."
V:2 bass nm="Fagotto" snm="Bsn."
V:3 treble nm="Harpsichord" snm="Hch."
V:4 treble 
V:6 treble 
V:5 bass 
V:1
"^Cantabile" d(d- d/e/f/g/ c)(c- c/e/d/c/) | (B/A/) !tenuto!B2 (b/f/ g/a/b/g/){/f} (Te>d) | %2
 !tenuto!d2 z g (c/=e/)!tenuto!f z !tenuto!b | (b/g/)!tenuto!a z !tenuto!c' (dd'/c'/ b/a/g/f/) | %4
 (=e/d/4c/4f/b/){/a} (Tg>f) !tenuto!f2 z2 | a(a- a/b/c'/d'/ g)g- g/b/a/g/ | %6
 (Pf/=e/)f z (f'/c'/ d'/=e'/f'/d'/){/c'} (Tb>a) | a2 z !tenuto!a (d/^f/)!tenuto!g z !tenuto!c' | %8
 (c'/a/)b z/ (_a/g/a/) (!tenuto!g/f/)(!tenuto!f/e/) (!tenuto!e/d/)(!tenuto!d/e/) | %9
 !tenuto!c2 z/ (e/d/c/ B/A/)(B- B/g/f/d/ | PB/A/)(B- B/d'/c'/b/) (a/g/f/e/){/d} Tc>B | %11
 !tenuto!B2 z/ (g/f/=e/ f/c/)(f- f/d'/c'/e/ | f/c/)(f- f/_e'/d'/c'/) (d'/a/b/g/){/b} (Ta>b) | %13
 !tenuto!b2 z2 z4 |][M:4/4]"^2. Allegro"[Q:1/4=108] B/c/ | defg !>!ab z b/a/ | gfed !>!cB z b/c'/ | %17
 !>!d'Bd'B (c'/b/)a/g/ f/=e/d/c/ | !>!c'Ac'A (b/a/)g/f/ =e/d/c/B/ | !>!bGbG (a/g/)f/=e/ d/c/B/A/ | %20
 (b/a/)g/f/ =e/d/c/B/ (c'/b/)a/g/ f/e/d/c/ | (d'/c'/)b/a/ g/f/=e/d/ (Pe/d/)c z f/g/ | %22
 abc'd' !>!=e'f' z f'/e'/ | d'c'ba !>!gf z f/g/ | %24
 (!>!_a/g/f/).g/ (f/=e/f/).c/ (!>!a/g/f/).g/ (f/e/f/).=B/ | %25
 (!>!_a/g/f/).g/ (f/=e/f/).G/ (e/d/)c z g/=a/ | %26
 (!>!b/a/g/).a/ (g/^f/g/).d/ (!>!b/a/g/).a/ (g/f/g/).c/ | %27
 (!>!b/a/g/).a/ (g/^f/g/).A/ (=f/=e/)d z .a | (3(!>!b/a/g/) (a2 d') (3(g/f/=e/) (f2 a) | %29
 (3(!>!b/a/g/) (a2 d') (3(g/f/=e/) (f2 d) | _ee/d/ e!tenuto!^f- fg/f/ ga | %31
 bb/a/ b!tenuto!^c'- c'd'/c'/ d'=e' | f'=e'/d'/ (^c'/d'/)e'/c'/ d'/a/f/a/ d'2- | %33
 !breath!d'/b/g/b/ d'2- d'/a/f/a/ d'2- | !breath!d'/c'/b/a/ (g/f/)=e/d/ ag/f/ (e/f/)g/e/ | %35
 f=e/d/ A^c' d'd z d'/=c'/ | =bd' gd'/c'/ bd' f_a/g/ | _af/_e/ f=b c'c z c'/_b/ | %38
 =ac' fc'/b/ ac' eg/f/ | ge/d/ ea bB z .d |!<(! (Te2 Tf2 Tg2 Ta2 | %41
 Tb2!<)! Tc'2) d'/e'/!tenuto!f'- f'/f/g/f/ | %42
 c'/d'/!tenuto!e'- e'/f/g/f/ b/c'/!tenuto!d'- d'/f/g/f/ | %43
 (!>!a/b/c'/)f/ (!>!c'/d'/e'/)f/ d'c' z B/c/ | defg !>!ab z b/a/ | gfe d !>!cB z e/d/ | %46
 ce'ce' (A/B/)c/d/ e/f/g/a/ | Bd'Bd' (G/A/)B/c/ d/=e/f/g/ | Ac'A!breath!c' (F/G/)A/B/ c/d/=e/f/ | %49
 G/A/B/c/ d/=e/f/g/ (A/B/)c/d/ _e/f/g/a/ | B/c/d/e/ f/g/_a/b/ gf z e | d/b/=a/b/ ca ba/g/ fe | %52
 (d/c/)d/B/ cPA B2 z b/c'/ | (!>!_d'/c'/b/)c'/ b/a/b/f/ (!>!d'/c'/b/)c'/ b/a/b/=e/ | %54
 (!>!_d'/c'/b/)c'/ b/a/b/c/ (a/g/)f z g | f e2 d/c/ d/e/f/d/ Bg | %56
 (f e2) d/c/ (d/e/)f/d/ B!breath!d | (3(efg (3fg_a (3g=ab (3abc') | %58
 (3(bc'd' (3c'd'e') d'/e'/!tenuto!f'- f'/f/g/f/ | %59
 c'/d'/!tenuto!e'- e'/f/g/f/ b/c'/!tenuto!d'- d'/f/g/f/ | %60
 (!>!a/b/c'/)f/ (!>!c'/d'/e'/)f/ d'c' z e' | d'c'/b/ (a/b/)c'/a/ b/f/d/f/ b2- | %62
 b/g/e/g/ b2- b/f/d/f/ b2- | !breath!b/a/g/f/ e/d/c/B/ (c'/b/)a/g/ f/e/d/c/ | %64
 (d'/c'/)b/a/ g/f/e/d/ gf z e | (d/c/)d/B/ ca ba/g/ fe | (d/c/)d/B/ c{/B}(TA{GA)} B2 z2 |] %67
[M:4/4]"^3. Affetuoso"[Q:1/4=60] d | (g2- g/d/b/d/) (a2- a/d/c'/d/) | %69
 (b/g/)(d'- d'/e'/c'/a/) P^f2 z A | (d2- d/A/f/A/) (=e2- e/A/g/A/) | %71
 (f/d/)(a- a/b/g/=e/) P^c2 z/ (e/f/g/) | (^f/a/c'- c'/=b/c'/d'/) !tenuto!b2 z/ (d/=e/=f/) | %73
 (=e/g/b- b/a/b/c'/) a2 z b | (g>^f) (gd'/b/)!<(! (Tg>f) (g!<)!b) | %75
 (_a/g/)a z!<(! ^f (g=a/b/){/g} (Tf>g)!<)! | g2 z/ (b/^f/g/) (_e/^c/d) z/ (b/f/g/) | %77
 (e/=B/c) z/!<(! (e'/d'/c'/) (b/a/b/c'/)!<)!{/d'} (Tc'>d') | (d'/4c'/4!fermata!d'3/2) z2 z4 |] %79
[M:3/4]"^4. Allegro"[Q:1/4=138] !>!bf fd dB | !tenuto!.B z !tenuto!.d z !tenuto!.f z | %81
 (3bga (3bc'd' (3c'd'b | (3abg (3fge (3dec | !>!bf fd dB | !tenuto!.B z !tenuto!.d z !tenuto!.g z | %85
 (3cd=e (3fga (3gaf | (3=efd (3cdB (3ABG | (3(fc)f (3faf (3fc'f | (!>!f<b) (d<f) !tenuto!B z | %89
 (3(gd)g (3gbg (3gd'g | (!>!g<c') (!>!=e<g) !tenuto!c z | !tenuto!_a2- (3aga (3bag | %92
 !tenuto!_a2- (3aga (3bag | (3_agf!<(! (_d'c') (c'!<)!=b) | (3=bfb (3fdf (3bfb | c'c (c'_b) (ba) | %96
 (3(ae)a (3ece (3aea | bB (ba) (ag) | gG (gf) (f=e) | (3=eBe (3BGB (3eBe | (3g=eg (3eBe (3geg | %101
 b2- (3bag (3d'c'b | (3agf (3c=ef (3Gfe | (3(f=e)d (3cdB (3ABG | F2 z4 | !>!bf fd dB | %106
 B z d z f z | (3(_ag)a (3f'ag (3agf | (3(gf)g !tenuto!e2 z2 | !>!gd d=B BG | %110
 !tenuto!.G z !tenuto!.=B z !tenuto!.d z | (3(f=e)d (3d'fe (3f_ed | (3(ed)e !tenuto!c2 z2 | %113
 ^f2- (3fag (3fga | c2- (3ced (3cde | (3(^FA)c (3^fac' (3dd'c' | (3(bg)d (3gdB (3dBG | %117
 ^c'2- (3c'=e'd' (3c'd'e' | g2- (3gba (3gab | (3(^c=e)g (3Ace (3gfe | (3(fd)f (3afa (3d'ad' | %121
 (3(def) z2 z2 | (3(def) z4 | (3(dfa) (3f=ed (3Ad^c | d2- (3d=ef (3def | (3!>!Bf=e (3def (3def | %126
 (3!>!Ff=e (3def (3def | !>!d'2- (3d'bd' (3c'^fc' | (3(ba)g (3afa (3g^cg | %129
 (3(fa)g (3f=ed (3(Ad)^c | d2 z4 | !>!df f=b bd' | e z g z c' z | !>!ce ea ac' | d z f z b z | %135
 (3Bcd (3efg (3fge | (3def (3gab (3abg | (3fga (3bc'd' (3c'd'b | (3abg (3fge (3dec | !>!bf fd dB | %140
 B z d z f z | (3dfa (3gab (3fba | z2 b4- | (3bfb (3bd'b (3bfb | !>!b<g (!>!g<e) (!>!e<B) | %145
 z2 b4- | (3bgb (3be'b (3bgb | (!>!b<f) (!>!f<d) (!>!d<B) | z2 =e4- | (3egf (3=edc B>e | %150
 (3fag (3^f=ed c>f | (3gba (3gfe d>b | (3ac'b (3agf e>a | (3bd'c' (3=bag !breath!f>b | %154
 (3(c'd')e' (3gab (3abc' | e2- (3edc (3gfe | (3(dc)B Fbca | (3bag (3fge (3dec | B6 |] %159
V:2
 B,B,B,B, A,A,A,A, | G,G,D,D, E,E,F,F, | B,B,G,G, A,A,=E,E, | F,F,A,A, B,B,G,G, | %4
 C(A,/B,/) CC, F,/(F,/G,/A,/ B,/C/D/=E/) | FFFF =EEEE | DDA,A, B,B,CC | F,F,CC B,B,^F,F, | %8
 G,G,D,D, E,D,C,B,, | F,F,F,F, G,G,F,F, | G,G,=E,E, F,D/_E/ FF, | B,,B,,B,B, A,A,B,B, | %12
 A,A,F,F, B,D,/E,/ F,F,, | B,,2 z2 z4 |][M:4/4] z | z4 z2 z D | EDCB, FB,/C/ DB, | %17
 B,,2 B,2 A,2 z2 | A,,2 A,2 G,2 z2 | G,,2 G,2 F,2 z2 | G,2 z2 A,2 z2 | B,2 z2 C2 z2 | z4 z2 z A, | %23
 B,A,G,F, CF,/G,/ A,F, | F2 z2 D2 z2 | =B,2 z2 C_E/D/ C_B,/A,/ | G,2 z2 =E,2 z2 | %27
 ^C,2 z2 D,D/=E/ FD | G,2 F,2 =E,2 D,2 | G,2 F,2 =E,2 D,F, | G,2 A,2 B,2 z ^C | D2 =E2 F2 z ^C | %32
 DG,A,G, F,2- F,/D,/=E,/F,/ | G,2- G,/=E,/F,/G,/ F,2- F,/D,/E,/F,/ | G,A,B,G, ^CDG,A, | %35
 DG,A,A,, D,D/=E/ FD | G2 z2 G,2 z2 | z =B,/C/ DG, C,C/D/ EC | F2 z2 F,2 z2 | %39
 z (A,/B,/) CF, B,,B,/C/ DB, | G,/B,/B,/B,/ D,/B,/B,/B,/ E,/G,/G,/G,/ C,/E,/E,/E,/ | %41
 D,/F,/F,/F,/ A,,/C,/C,/C,/ B,,B,B,B, | z A,A,A, z B,B,B, | F,2 [F,,F,]2 [F,,F,]2 z2 | z4 z2 z D | %45
 EDCB, FB,/C/ DB, | A,2 z2 F,2 z2 | G,2 z2 =E,2 z2 | F,2 z2 D,2 z2 | =E,2 z2 F,2 z2 | %50
 D2 z2 _EB,/C/ DC | B,2 E,F, G,2 A,2 | B,D,E,F, B,,(B,/C/) DB, | B,,2 z2 G,2 z2 | %54
 =E,2 z2 F,F/_E/ DE | D2 C2 B,2 z E | D2 C2 B,2 z B,, | C,CD,D E,EF,F | G,GA,A B,B,,B,,B,, | %59
 z A,,A,,A,, z B,,B,,B,, | F,2 F,2 F,2 z A, | B,EFE D2- D/B,/C/D/ | E2- E/C/D/E/ D2- D/B,/C/D/ | %63
 G,2 z2 A,2 z2 | B,2 z2 ED/C/ DA, | B,2 A,F, G,2 A,2 | B,D,E,F, B,,2 z2 |][M:4/4] z | %68
 z G G,2 z G, ^F,2 | z B,CE DD, z2 | z D D,2 z D, ^C,2 | z F,G,B, z A, A,,2 | z ^F, D,2 z G, G,,2 | %73
 z =E, C,2 z F, F,,D | z _E B,2 z E B,2 | z CDD, E,CDD, | G,G G,2 z ^F, G,2 | z A,D,^F, G,2 E,2 | %78
 !fermata!D,2 z2 z4 |][M:3/4] B,,2 z2 z2 | B,F, F,D, D,B,, | G,2 D,2 =E,2 | F,2 (3FGE (3DEC | %83
 B,2 z2 z2 | DB, B,G, G,B, | A,2 A,,2 =B,,2 | C,2 (3CDB, (3A,B,G, | A,2 F,2 E,2 | D,2 z4 | %89
 B,2 G,2 F,2 | =E,2 z4 | F,2 F2 =E2 | F2 F,2 =E,2 | F,2 F2 z2 | D2 D,2 D2 | E,2 E2 z2 | C2 C,2 C2 | %97
 D,2 D2 z2 | B,2 B,,2 B,2 | G,2 z2 z2 | =E,2 z4 | C,2 C2 z =E | FB, C2 C,2 | F,2 z4 | %104
 (3F,A,C (3FGE (3DEC | B,2 z4 | B,F, F,D, D,B,, | B,,2 D,2 B,,2 | E,2 (3EDE (3C=B,C | G,2 z4 | %110
 GD D=B, B,G, | G,2 =B,2 G,2 | C,2 (3C=B,C (3A,G,A, | D,2 D,2 z2 | ^F,2 F,2 z2 | A,2 D,2 ^F,2 | %116
 G,2 z4 | =E2 E2 z2 | ^C2 C2 z2 | A,2 ^C2 A,2 | D2 z2 z2 | F,2 (3(D^CD) (3(DCD) | %122
 F,2 (3(D^CD) (3(DCD) | F,2 G,2 A,2 | D2 D,2 z2 | z6 | z6 | B,2 B,,2 A,2 | G,2 F,2 =E,2 | %129
 D,2 G,2 A,2 | DA, A,F, F,D, | =B,2 D2 G,2 | CG, G,E, E,C, | A,2 C2 F,2 | B,F, F,D, D,B,, | %135
 G,2 z2 A,2 | B,2 z2 C2 | D2 z2 =E,2 | F,2 (3FGE (3DEC | B,2 z2 z2 | B,F, F,D, D,B,, | %141
 B,2 E,2 F,2 | (3B,,D,F, (3B,A,B, (3CB,C | D2 B,2 D2 | E2 z2 z2 | (3E,G,B, (3EDE (3FEF | %146
 G2 G,2 G2 | D2 z2 z2 | (3G,B,A, (3G,A,F, (3=E,F,D, | C,2 C2 z2 | A,2 D2 z2 | B,2 E2 z2 | %152
 C2 F2 z2 | D2 G2 z2 | E2 E,2 C,2 | A,,2 F,,2 z A, | B,E, F,2 F,,2 | B,,4 z2 | B,,6 |] %159
V:3
!p! d3 d c4 | B3 f (e/f/g/e/) c2 | [DFB]2 z [Bd] c3 B | f7/2 e/ d4 | c2 F=E A>(c d/=e/f/g/4b/4) | %5
 a3 (a/b/ g4) | f3 f fd =e2 | f2 ^f2 g3 a | (a/^f/g) =f2 eBAB | A3 A B2- B/(B/A/B/) | %10
 G2 B2 A/(_e/d/c/ B/A/G/F/ | E/C/F =E>)!tenuto!G !tenuto!F2 z !tenuto!d | %12
 !tenuto!c>!tenuto!d (_e/a/b/a/4g/4) (f/e/d/c/) c2 | B2 z2 z4 |][M:4/4] z | z2 z!p! d/e/ fgab | %16
 ged z [Ac]d/c/ B2 | !tenuto!.[Fd]2 !tenuto!.[Fd]2 !tenuto!.[Fc]2 z2 | %18
 !tenuto!.[cf]2 !tenuto!.[cf]2 !tenuto!.[B=e]2 z2 | [B=e]2 T[Be]2 [Af]2 z2 | [B=e]2 z2 [cf]2 z2 | %21
 [Fd-]2 d/(d/c/B/) =e/(f/g/e/) c2 | z F/G/ AB cd=ef | dcBA G(A/B/) c2 | [_Ac]2 z2 [FA=B]2 z2 | %25
 [F_Ad]2 z2 _e/f/g/f/ e/c/d/^f/ | [Bg]2 z2 [B^cg]2 z2 | [GB=e-]2 e/d/e/^c/ d/e/f/g/ a/g/f/e/ | %28
 d4 ^c2 d2 | d4 ^c2 d2 | _e2 cd/e/ d2 z =e | =fg/f/ ga- ab/a/ ba- | aba=e d2 z2 | %33
 B2- B/G/A/B/ A/F/C/F/ A/B/c/A/ | BcGd =efd^c | d2 ^c=e f/g/f/e/ d/e/f | =B2 z2 z f/_e/ dB | %37
 dG =B/c/d _e/d/c/B/ c/d/e | A2 z2 Ae/d/ ce | Bc/B/ A/B/c d2 z2 | B4 c4 | f2 Te2 d.D.D.D | %42
 z .c.c.c z .d.d.d | f/g/a a/b/c' ba z2 | z B/c/ de fgab | gfed [Ac]d/c/ B/d/c/B/ | c2 z2 (A3 c | %47
 B2) z2 (G3 B | A2) z2 A2 z2 | G2 z2 (A3 c | B2) z2 B/c/d/e/ f/g/=a/b/ | [db]2 z2 Bd cA/G/ | %52
 (F/E/F/D/ C/D/E) D2 z!p! [Fd] | !tenuto!.[FB_d]2 z2 !tenuto!.[Bd=e]2 z2 | %54
 [B_dg]2 z2 [Acf]2 z/ F/G/A/ | B B2 B/A/ B2 z B | B B2 B/A/ B2 z2 | B4 G2 A2 | B2 c2 dDDD | %59
 PF4 F4 | A/G/A/B/ A/B/c/A/ BA z f | fgfc B2- B/d/e/f/ | g2- g/e/f/g/ f/d/B/d/ f/d/e/f/ | %63
 B2 z2 [cf]2 z2 | (b/a/)g/f/ e/d/c/B/ G/A/B/c/ B>c | d2 z c' b/g/f/e/ c/d/e/f/ | dBGA B2 z2 |] %67
[M:4/4] z | z!p! d !tenuto!d2 z c !tenuto![Ac]2 | Bfec d2 z2 | z A/G/ F2 z/ G/F/=E/ E2 | %71
 FdBG A^c/=B/ A2 | z/ d/=c/_B/ A2 z/ (f/4e/4)d/c/ =B>B | cg- g/f/g/a/ f4 | %74
 z [GB]/c/ [Gd]2 z/ B/B/c/ d>d | ce d2 c/d/e d2 | d4 z2 B2 | z/ G/C/D/ z [Ad] [GBd]2 c2 | %78
 !fermata![^FAd]2 z2 z4 |][M:3/4] [B,DFBd] z z2 z2 | BF FD DA, | B,2 B2 c2- | c4 z2 | %83
 !arpeggio![FBdf] z z2 z2 | dB BG GB | c4 d2 | (3cdB (3ABG (3FG=E |!p! F3 A c2 | B2 z2 z2 | %89
 G3 B Bd | [Gc]2 z2 z2 | [_Ac]4 [Gc]2 | [_Ac]4 g2 | (3fed (b_a) (ag) | f2 =B3 B | c4 G2 | A4 A2 | %97
 B4 (fe) | d3 d (dc) | [=EB]2 z2 z2 | [Gc-]2 (3cGc (3=ece | [B=eg]4 z [Bg] | %102
 [Af][Bd] [Af]2 T[c=e]2 | [Af]2 z2 z2 | z2 (3ABc (3Bce | !arpeggio![FBd] z z2 z2 | BF FD DB, | %107
 B,2 [FB]2 [_Ad]2 | [GBe]2 (3gfg (3ede | [G=Bd]2 z2 z2 | z6 | %111
 !tenuto!.=B z !tenuto!.d z !tenuto!.f z | (3c=Bc (3eGA (3cBc | (d=e ^f2) .d2 | (3edc A2 z2 | %115
 [^fc']4 [ca]2 | [Bg]2 z2 z2 | G^c ce g2- | gf =e2 z2 | c'4 c'2 | d'2 z2 z2 | (d2 f4) | (B2 g4) | %123
 d4 (3[A^c]d=e | d4 z2 | z6 | z6 | b4 ^f2 | d4 ^c2 | d4 [=EA^c]2 | [FAd] z z2 z2 | G z =B z f z | %132
 _EG Gc ce | F z A z c z | DF FB Bd | E z G z c z | d4 e2 | f2 d2 c2- | c4 z2 | %139
 !arpeggio![FBd] z z2 z2 | BF FD DB, | d2 B2 e2 | d2- (3dcd (3ede | f4 f2 | g2 e2 g2- | %145
 g2 (3gfe (3dcd | e4 z2 | f4 z2 | B2 [GB]2 [Gc]2 | [=EBc]4 z2 | [Acf]2 [Ad^f]4 | [Gdg]2 [Bg]4 | %152
 [ea]2 [cfa]4 | f2 d2 d>g | z4 (3fga | (3efg (3cde Af | [df][Bg] [df][Bd] [Ac]2 | BfdBFE | B6 |] %159
V:4
 F4 F2 ^F2 | GC FB G2 (BA) | x4 GF (G/A/) x | B(A/B/ c)F F2 x2 | (=E/F/)(F/G/) x2 F2 x2 | %5
 c4 c2 ^cG | (A/G/A/B/ c2) dB G2 | (A/B/c d)A- AG d2- | dB BF GFED | (C/D/E/F/ F2) D3 C | %10
 B,/C/C CG F2 x2 | x D C2 C2 CF- | F2 x4 (A/4B/4A/4G/4A/E/) | [DF]2 x6 |][M:4/4] x | x7 f | %16
 B2 x2 A2 B2 | x8 | x8 | x8 | x8 | x8 | x7 c | F2 x2 =E2 x2 | x8 | x4 G4 | x8 | x8 | %28
 B A2 D G F2 A | B A2 D G F2 A | B2 ^F2 G2 x A | A2 x5 =e | fd ^c2 A2- A/F/G/A/ | x8 | %34
 x3 B A2 B=E | FB A2 x4 | x8 | x8 | x8 | x5 (D/E/ F/E/D) | E2 F2 G2 A2 | B2 x2 F4 | PF4 F4 | %43
 A2 x c dc x2 | x7 f | B2 x2 A2 x2 | E2 x2 C2 x2 | D2 x2 C2 x2 | C2 x2 F3 F | C2 x2 F2 x2 | F2 x6 | %51
 x (f A/f/e/f/) x4 | x8 | x8 | x8 | F2 E2 D2 x2 | x2 E2 D2 x2 | [EF]2 F2 x4 | x4 F4 | x CCC x DDD | %60
 C4 DC x2 | dB A2 F2 x2 | x8 | x8 | d2 x4 F2 | F2 x2 d2 x2 | F2 GE D2 x2 |][M:4/4] x | %68
 x B [DB]2 x A C2 | Gd G2 [^FA]2 z2 | x =F A,2 x2 A,2 | DA D2 z =E/D/ ^C2 | x2 ^F2 x =B D2 | %73
 x c/d/ =e2 x4 | x5 G G2 | x _A/G/ ^F>=A G2 F>c | (c/B/4A/4B-) B2 z/ (A/D/E/ D/C/B,) | %77
 x2 ^F/G/D- DG- G/!tenuto!B/!tenuto!A/!tenuto!G/ | x8 |][M:3/4] x6 | x6 | x2 F2 G2 | (3ABG x4 | %83
 x6 | x6 | G2 F2 x2 | =E2 x4 | x6 | F2 x4 | x6 | x6 | x6 | x4 c2 | _A2 x4 | x4 F2 | G4 x2 | x6 | %97
 F4 x2 | x2 F4 | x6 | x6 | x6 | x6 | x6 | x6 | x6 | x6 | x6 | x6 | x6 | x6 | x6 | x6 | ^F2 x4 | %114
 x6 | x6 | x6 | x6 | g4 x2 | e2 a2 e2 | f2 x4 | x6 | x6 | A2 B2 A2 | F4 x2 | x6 | x6 | [df]4 c2 | %128
 B2 A2 G2 | [FA]2 [GB]2 x2 | x F FA Ad | x6 | x6 | x6 | x6 | x6 | F2 G2 A2- | A2 B2 G2 | (3ABG x4 | %139
 x6 | x6 | F2 G2 A2 | B2 x4 | B6- | B2 x4 | B2 x4 | x6 | x2 d2 B2- | x6 | x6 | x6 | x6 | A6 | %153
 B2 =B4 | x6 | x5 [ce] | x4 AF | D2 x4 | (3EDC D4 |] %159
V:5
 B,B,B,B, A,A,A,A, | G,[I:staff -1]C[I:staff +1]D,D, E,E,F,F, | B,B,G,G, A,A,=E,E, | %3
 F,F,A,A, B,B,G,G, | C(A,/B,/) CC, F,/(F,/G,/A,/ B,/C/D/=E/) | FFFF =EEEE | DDA,A, B,B,CC | %7
 F,F,CC B,B,^F,F, | G,G,D,D, E,D,C,B,, | F,F,F,F, G,G,F,F, | G,G,=E,E, F,D/_E/ FF, | %11
 B,,B,,B,B, A,A,B,B, | A,A,F,F, B,D,/E,/ F,F,, | B,,2 z2 z4 |][M:4/4] z | z4 z2 z D | %16
 EDCB, FB,/C/ DB, | B,,2 B,2 A,2 z2 | A,,2 A,2 G,2 z2 | G,,2 G,2 F,2 z2 | G,2 z2 A,2 z2 | %21
 B,2 z2 C2 z2 | z4 z2 z A, | B,A,G,F, CF,/G,/ A,F, | F2 z2 D2 z2 | =B,2 z2 C_E/D/ C_B,/A,/ | %26
 G,2 z2 =E,2 z2 | ^C,2 z2 D,D/=E/ FD | G,2 F,2 =E,2 D,2 | G,2 F,2 =E,2 D,F, | G,2 A,2 B,2 z ^C | %31
 D2 =E2 F2 z ^C | DG,A,G, F,2- F,/D,/=E,/F,/ | G,2- G,/=E,/F,/G,/ F,2- F,/D,/E,/F,/ | %34
 G,A,B,G, ^CDG,A, | DG,A,A,, D,D/=E/ FD | G2 z2 G,2 z2 | z =B,/C/ DG, C,C/D/ EC | F2 z2 F,2 z2 | %39
 z (A,/B,/) CF, B,,B,/C/ DB, | G,/B,/B,/B,/ D,/B,/B,/B,/ E,/G,/G,/G,/ C,/E,/E,/E,/ | %41
 D,/F,/F,/F,/ A,,/C,/C,/C,/ B,,B,B,B, | z A,A,A, z B,B,B, | F,2 [F,,F,]2 [F,,F,]2 z2 | z4 z2 z D | %45
 EDCB, FB,/C/ DB, | A,2 z2 F,2 z2 | G,2 z2 =E,2 z2 | F,2 z2 D,2 z2 | =E,2 z2 F,2 z2 | %50
 D2 z2 _EB,/C/ DC | B,2 E,F, G,2 A,2 | B,D,E,F, B,,(B,/C/) DB, | B,,2 z2 G,2 z2 | %54
 =E,2 z2 F,F/_E/ DE | D2 C2 B,2 z E | D2 C2 B,2 z B,, | C,CD,D E,EF,F | G,GA,A B,B,,B,,B,, | %59
 z A,,A,,A,, z B,,B,,B,, | F,2 F,2 F,2 z A, | B,EFE D2- D/B,/C/D/ | E2- E/C/D/E/ D2- D/B,/C/D/ | %63
 G,2 z2 A,2 z2 | B,2 z2 ED/C/ DA, | B,2 A,F, G,2 A,2 | B,D,E,F, B,,2 z2 |][M:4/4] z | %68
 z G G,2 z G, ^F,2 | z B,CE DD, z2 | z D D,2 z D, ^C,2 | z F,G,B, z A, A,,2 | z ^F, D,2 z G, G,,2 | %73
 z =E, C,2 z F, F,,D | z _E B,2 z E B,2 | z CDD, E,CDD, | G,G G,2 z ^F, G,2 | z A,D,^F, G,2 E,2 | %78
 !fermata!D,2 z2 z4 |][M:3/4] B,,2 z2 z2 | B,F, F,D, D,B,, | G,2 D,2 =E,2 | F,2 (3FGE (3DEC | %83
 B,2 z2 z2 | DB, B,G, G,B, | A,2 A,,2 =B,,2 | C,2 (3CDB, (3A,B,G, | A,2 F,2 E,2 | D,2 z4 | %89
 B,2 G,2 F,2 | =E,2 z4 | F,2 F2 =E2 | F2 F,2 =E,2 | F,2 F2 z2 | D2 D,2 D2 | E,2 E2 z2 | C2 C,2 C2 | %97
 D,2 D2 z2 | B,2 B,,2 B,2 | G,2 z2 z2 | =E,2 z4 | C,2 C2 z =E | FB, C2 C,2 | F,2 z4 | %104
 (3F,A,C (3FGE (3DEC | !arpeggio!B,2 z4 | B,F, F,D, D,B,, | B,,2 D,2 B,,2 | E,2 (3EDE (3C=B,C | %109
 G,2 z4 | GD D=B, B,G, | G,2 =B,2 G,2 | C,2 (3C=B,C (3A,G,A, | D,2 D,2 z2 | ^F,2 F,2 z2 | %115
 A,2 D,2 ^F,2 | G,2 z4 | =E2 E2 z2 | ^C2 C2 z2 | A,2 ^C2 A,2 | D2 z2 z2 | F,2 (3(D^CD) (3(DCD) | %122
 F,2 (3(D^CD) (3(DCD) | F,2 G,2 A,2 | D2 D,2 z2 | z6 | z6 | B,2 B,,2 A,2 | G,2 F,2 =E,2 | %129
 D,2 G,2 A,2 | DA, A,F, F,D, | =B,2 D2 G,2 | CG, G,E, E,C, | A,2 C2 F,2 | B,F, F,D, D,B,, | %135
 G,2 z2 A,2 | B,2 z2 C2 | D2 z2 =E,2 | F,2 (3FGE (3DEC | !arpeggio!B,2 z2 z2 | B,F, F,D, D,B,, | %141
 B,2 E,2 F,2 | (3B,,D,F, (3B,A,B, (3CB,C | D2 B,2 D2 | E2 z2 z2 | (3E,G,B, (3EDE (3FEF | %146
 G2 G,2 G2 | D2 z2 z2 | (3G,B,A, (3G,A,F, (3=E,F,D, | C,2 C2 z2 | A,2 D2 z2 | B,2 E2 z2 | %152
 C2 F2 z2 | D2 G2 z2 | E2 E,2 C,2 | A,,2 F,,2 z A, | B,E, F,2 F,,2 | B,,4 z2 | B,,6 |] %159
V:6
 x8 | x8 | x8 | x8 | x8 | x8 | x8 | x8 | x8 | x8 | x8 | x8 | x8 | x8 |][M:4/4] x | x8 | x8 | x8 | %18
 x8 | x8 | x8 | x8 | x8 | x8 | x8 | x8 | x8 | x8 | x8 | x8 | x8 | x8 | x8 | x8 | x8 | x8 | x8 | %37
 x8 | x8 | x8 | x8 | x8 | x8 | x8 | x8 | x8 | x8 | x8 | x8 | x8 | x8 | x8 | x8 | x8 | x8 | x8 | %56
 x8 | x8 | x8 | x8 | x8 | x8 | x8 | x8 | x8 | x8 | x8 |][M:4/4] x | x8 | x8 | x8 | x8 | x8 | %73
 x9/2 A- A/B/4c/4B x/ | x8 | x8 | x8 | x8 | x8 |][M:3/4] x6 | x6 | x6 | x6 | x6 | x6 | x6 | x6 | %87
 x6 | x6 | x6 | x6 | x6 | x6 | x6 | x6 | x6 | x6 | x6 | x6 | x6 | x6 | x6 | x6 | x6 | x6 | x6 | %106
 x6 | x6 | x6 | x6 | x6 | x6 | x6 | x6 | x6 | x6 | x6 | x6 | x6 | x6 | x6 | x6 | x6 | x6 | x6 | %125
 x6 | x6 | x6 | x6 | x6 | x6 | x6 | x6 | x6 | x6 | x6 | x6 | x6 | x6 | x6 | x6 | x6 | x6 | x6 | %144
 x6 | x6 | x6 | x6 | x6 | x6 | x6 | x6 | x6 | x6 | x6 | x6 | x6 | x6 | x6 |] %159

